images/rules_ico_2.svg

<svg width="48" height="48" viewBox="0 0 48 48" fill="none" xmlns="http://www.w3.org/2000/svg">
<rect width="48" height="48" rx="12" fill="#222222"/>
<path d="M24 8C15.5726 8 8.67215 14.5165 8.05045 22.7844C8.01897 22.85 8 22.9223 8 23C8 23.05 8.0096 23.0976 8.02344 23.1433C8.00826 23.427 8 23.7125 8 23.9998C8 24.2873 8.00826 24.5727 8.02344 24.8567C8.0096 24.9024 8 24.95 8 25C8 25.0777 8.01897 25.1502 8.05067 25.2156C8.67255 33.4835 15.5729 40 24.0002 40C32.8361 40 40 32.8367 40 24.0002C40 15.1643 32.8367 8.00037 24.0002 8.00037L24 8ZM29.2376 23.7621C29.1771 22.4141 28.6144 21.1974 27.7245 20.3012L34.3987 18.0229C34.6766 18.5044 34.9221 19.0066 35.132 19.5271L29.2376 23.7621ZM23.9997 28.2495C21.6562 28.2495 19.7498 26.3431 19.7498 23.9996C19.7498 21.6561 21.6562 19.7496 23.9997 19.7496C26.3433 19.7496 28.2497 21.6561 28.2497 23.9996C28.2497 26.3431 26.3433 28.2495 23.9997 28.2495ZM26.7957 19.5616C25.9857 19.05 25.0288 18.7496 23.9997 18.7496C23.0082 18.7496 22.0846 19.0293 21.2935 19.5072L14.2011 17.0858C16.376 14.0122 19.9564 11.9997 23.9998 11.9997C28.0734 11.9997 31.6774 14.0418 33.8471 17.1543L26.7957 19.5616ZM13.645 17.9456C13.6642 17.9552 13.6832 17.9657 13.7042 17.9726L20.3412 20.2382C19.4528 21.1025 18.8723 22.2776 18.7705 23.5888L12.9226 19.3871C13.1313 18.8882 13.3739 18.4079 13.6449 17.9456L13.645 17.9456ZM12.5651 20.3612L18.8262 24.8598C19.0472 26.1962 19.77 27.36 20.7981 28.1535L22.0268 35.834C16.3459 34.89 12.0001 29.9438 12.0001 23.9993C12.0001 22.7313 12.1994 21.5094 12.5655 20.3612H12.5651ZM23.0593 35.9593L21.9169 28.8182C22.5558 29.0943 23.2593 29.2495 23.9995 29.2495C24.7396 29.2495 25.4432 29.0943 26.082 28.818L24.9396 35.9591C24.6291 35.9834 24.3164 35.9995 23.9997 35.9995C23.6827 35.9995 23.3698 35.9834 23.0593 35.9593ZM27.201 28.1537C28.1773 27.4003 28.884 26.3146 29.1413 25.0621L35.4795 20.508C35.8164 21.6136 35.9992 22.7854 35.9992 23.9995C35.9992 29.9445 31.6532 34.8908 25.9724 35.8348L27.201 28.1537ZM36.9866 23.4997H38.9865C38.9919 23.666 38.9993 23.8321 38.9993 23.9995C38.9993 24.1671 38.9919 24.3332 38.9865 24.4997H36.9866C36.993 24.3334 36.9993 24.1671 36.9993 23.9995C36.9993 23.8316 36.993 23.6658 36.9866 23.4997ZM23.9999 8.99987C31.7649 8.99987 38.1694 14.9307 38.9242 22.4997H36.9107C36.7959 21.5013 36.5694 20.5368 36.2412 19.6203C36.2317 19.5589 36.2102 19.4997 36.1767 19.4437C34.3308 14.5121 29.5763 10.9998 23.9997 10.9998C17.3273 10.9998 11.8325 16.0272 11.0885 22.4997H9.0749C9.8298 14.9306 16.2348 8.99987 23.9999 8.99987ZM9.00003 23.9997C9.00003 23.8323 9.0074 23.6662 9.01276 23.4999H11.0127C11.0063 23.666 11 23.8318 11 23.9997C11 24.1673 11.0063 24.3336 11.0127 24.4999H9.01276C9.0074 24.3334 9.00003 24.1673 9.00003 23.9997ZM23.9999 38.9995C16.2348 38.9995 9.83031 33.0687 9.07489 25.4997H11.0885C11.8326 31.9722 17.3278 36.9996 23.9997 36.9996C30.6711 36.9996 36.1665 31.9722 36.9104 25.4997H38.924C38.1689 33.0687 31.7641 38.9995 23.9996 38.9995H23.9999Z" fill="white"/>
</svg>

<svg width="48" height="48" fill="none" xmlns="http://www.w3.org/2000/svg"><rect width="48" height="48" rx="12" fill="#222"/><path d="M24 8C15.573 8 8.672 14.517 8.05 22.784A.495.495 0 008 23c0 .05.01.098.023.143a16.026 16.026 0 000 1.714A.492.492 0 008 25c0 .078.019.15.05.216C8.674 33.483 15.574 40 24 40c8.836 0 16-7.163 16-16 0-8.836-7.163-16-16-16zm5.238 15.762a5.23 5.23 0 00-1.514-3.46l6.675-2.28c.278.482.523.985.733 1.505l-5.894 4.235zM24 28.25A4.255 4.255 0 0119.75 24 4.255 4.255 0 0124 19.75 4.255 4.255 0 0128.25 24 4.255 4.255 0 0124 28.25zm2.796-8.688a5.217 5.217 0 00-5.502-.055L14.2 17.086C16.376 14.012 19.956 12 24 12c4.073 0 7.677 2.042 9.847 5.154l-7.051 2.408zm-13.151-1.616c.02.01.038.02.06.027l6.636 2.265a5.23 5.23 0 00-1.57 3.35l-5.848-4.2c.208-.5.45-.98.722-1.442zm-1.08 2.415l6.261 4.499a5.239 5.239 0 001.972 3.294l1.229 7.68C16.346 34.89 12 29.944 12 23.999c0-1.268.2-2.49.566-3.638zM23.06 35.96l-1.142-7.14a5.236 5.236 0 004.165-.001l-1.142 7.141c-.31.024-.624.04-.94.04-.317 0-.63-.016-.94-.04zm4.142-7.805a5.243 5.243 0 001.94-3.092l6.339-4.554a11.99 11.99 0 01.52 3.492c0 5.945-4.347 10.89-10.028 11.835l1.229-7.681zm9.786-4.654h2c.005.166.012.332.012.5 0 .167-.007.333-.013.5h-2c.007-.167.013-.333.013-.5 0-.168-.006-.334-.012-.5zM24 9c7.765 0 14.17 5.93 14.924 13.5h-2.013a12.908 12.908 0 00-.67-2.88.487.487 0 00-.064-.176C34.33 14.512 29.577 11 24 11c-6.673 0-12.168 5.027-12.912 11.5H9.075C9.83 14.93 16.235 9 24 9zM9 24c0-.168.007-.334.013-.5h2A11.83 11.83 0 0011 24c0 .167.006.334.013.5h-2C9.007 24.333 9 24.167 9 24zm15 15c-7.765 0-14.17-5.931-14.925-13.5h2.014c.744 6.472 6.239 11.5 12.91 11.5 6.672 0 12.168-5.028 12.911-11.5h2.014C38.169 33.069 31.764 39 24 39z" fill="#fff"/></svg>
